X:658
T:
S:Efter Karl Odin Kaupe i Fröjel m. fl.
R:kadrilj
O:Gotland, Fröjel
M:2/4
L:1/16
K:C
G2|c2cB cBcd|c2G^F G2ED|E2CB, C2C2|C4 z2 g2|^fgag =fedc|Bcdc BAGF|E2c2
d2B2|c4 z2::G2|f2fe d2dc|B2BA G2AB|cBcG FEDC|G,4 z2 G2|cdef geag|fdgf
ecfd|edfd c2B2|c4 z2::g2|eceg eceg|fedc BAGF|EGAB cdef|d2d2 d2g2|eceg
eceg|fedc BAGF|E2a2 g2B2|c4 z2::D2|G2G^F GABc|dcBA GFED|E2g2 F2a2|d3B
G2G2|cdef geaf|fedc cBAG|F2a2 g2B2|c4 z2:|

